X:7783
T:Jackson's
M:C
L:1/8
K:D Major
dB|A3B AFDF|A2FA GECE|A3d BdAF|EDD2 EFGB|!
A3B AFDF|A2FA GECE|A2d BdAF|EDD2 EF|]!
GE|FDD2 FDGD|FDD2 GECE|FDD2 FDGD|EDCD EF:|!
GA|dff2 dffe|dcdB AFDA|cee2 ceec|B2GB AFDA|!
dff2 dffe|dcdB AFDA|cee2 faec|dfAc d2|]!


